fs/building_shop_20_regular.svg

<svg viewBox="0 0 20 20" fill="none" xmlns="http://www.w3.org/2000/svg" height="1em" width="1em">
  <path d="M11 11.5V14.5C11 14.7761 11.2239 15 11.5 15H14.5C14.7761 15 15 14.7761 15 14.5V11.5C15 11.2239 14.7761 11 14.5 11H11.5C11.2239 11 11 11.2239 11 11.5ZM12 14V12H14V14H12ZM5.00001 2C4.85162 2 4.71089 2.06591 4.6159 2.17991L2.1159 5.17991C2.03955 5.27152 2.00002 5.3852 2 5.5V7C2 7.8885 2.38625 8.68679 3 9.23611V17.5C3 17.7761 3.22386 18 3.5 18H16.5C16.7761 18 17 17.7761 17 17.5V9.23611C17.6137 8.68679 18 7.8885 18 7V5.5C18 5.49401 18 5.48813 18.0001 5.48233C18.0005 5.39121 18.0009 5.32003 17.8841 5.17991L15.3841 2.17991C15.2891 2.06591 15.1484 2 15 2H5.00001ZM5 9C3.89543 9 3 8.10457 3 7V6H7V7C7 8.10457 6.10457 9 5 9ZM10 9C8.89543 9 8 8.10457 8 7V6H12V7C12 8.10457 11.1046 9 10 9ZM15 9C13.8954 9 13 8.10457 13 7V6H17V7C17 8.10457 16.1046 9 15 9ZM5 17H4V9.82929C4.31278 9.93985 4.64936 10 5 10C6.04349 10 6.96254 9.46725 7.5 8.6589C8.03746 9.46725 8.95651 10 10 10C11.0435 10 11.9625 9.46724 12.5 8.65889C13.0375 9.46724 13.9565 10 15 10C15.3506 10 15.6872 9.93985 16 9.82929V17H10V11.5C10 11.2239 9.77614 11 9.5 11H5.5C5.22386 11 5 11.2239 5 11.5V17ZM7.13964 5H3.56753L5.23419 3H7.8063L7.13964 5ZM11.8063 5H8.19373L8.8604 3H11.1396L11.8063 5ZM12.8604 5L12.1937 3H14.7658L16.4325 5H12.8604ZM6 17V12H9V17H6Z" fill="#212121"/>
</svg>

<svg viewBox="0 0 20 20" fill="none" xmlns="http://www.w3.org/2000/svg" height="1em" width="1em">
  <path d="M11 11.5v3a.5.5 0 0 0 .5.5h3a.5.5 0 0 0 .5-.5v-3a.5.5 0 0 0-.5-.5h-3a.5.5 0 0 0-.5.5Zm1 2.5v-2h2v2h-2ZM5 2a.5.5 0 0 0-.384.18l-2.5 3A.5.5 0 0 0 2 5.5V7c0 .888.386 1.687 1 2.236V17.5a.5.5 0 0 0 .5.5h13a.5.5 0 0 0 .5-.5V9.236c.614-.55 1-1.348 1-2.236V5.482c0-.09 0-.162-.116-.302l-2.5-3A.5.5 0 0 0 15 2H5Zm0 7a2 2 0 0 1-2-2V6h4v1a2 2 0 0 1-2 2Zm5 0a2 2 0 0 1-2-2V6h4v1a2 2 0 0 1-2 2Zm5 0a2 2 0 0 1-2-2V6h4v1a2 2 0 0 1-2 2ZM5 17H4V9.83a2.997 2.997 0 0 0 3.5-1.17A2.997 2.997 0 0 0 10 10a2.997 2.997 0 0 0 2.5-1.341 2.997 2.997 0 0 0 3.5 1.17V17h-6v-5.5a.5.5 0 0 0-.5-.5h-4a.5.5 0 0 0-.5.5V17ZM7.14 5H3.568l1.666-2h2.572L7.14 5Zm4.666 0H8.194l.666-2h2.28l.666 2Zm1.054 0-.666-2h2.572l1.667 2H12.86ZM6 17v-5h3v5H6Z" fill="#212121"/>
</svg>
